!!!COM: Palestrina, Giovanni Perluigi da
!!!OPR: Missa Lauda Sion
!!!OMD: Benedictus
!!!OTL: First Section
**kern	**kern	**kern
*Icalto	*Icant	*Icant
!Altus	!Cantus 2	!Cantus 1
*clefG2	*clefG2	*clefG2
*k[]	*k[]	*k[]
*G:mix	*G:mix	*G:mix
*M4/2	*M4/2	*M4/2
=1	=1	=1
1r	0r	1d
1G	.	1g
=2	=2	=2
1.c	0r	1g
.	.	1a
2d	.	.
=3	=3	=3
1e	0r	1g
2c	.	[1cc
2e	.	.
=4	=4	=4
2f	1r	2cc]
1g	.	2b
.	1d	1a
2f	.	.
=5	=5	=5
1.e	1g	2g
.	.	1b
.	1g	.
4d	.	[2cc
4c	.	.
=6	=6	=6
1f	1a	2cc]
.	.	4b
.	.	4a
2.e	1g	4b
.	.	4a
.	.	4g
4d	.	4f
=7	=7	=7
4c	1.cc	2e
4B	.	.
2c	.	1a
[1d	.	.
.	2b	[2g
=8	=8	=8
1d]	1a	2g]
.	.	2f#
[1G	2g	1g
.	[2dd	.
=9	=9	=9
1G]	2dd]	2r
.	2b	2g
1r	2cc	2e
.	[2dd	2f
=10	=10	=10
1G	4dd]	2.g
.	4cc	.
.	4b	.
.	4a	4f
1c	2g	4e
.	.	4d
.	2a	4c
.	.	4d
=11	=11	=11
1c	2g	4e
.	.	4f
.	2e	2.g
1d	1f	.
.	.	4f
.	.	[2f
=12	=12	=12
1c	2g	2f]
.	1dd	2e
[1f	.	[1a
.	[2dd	.
=13	=13	=13
2f]	4dd]	2a]
.	4cc	.
2e	1cc	2g
1d	.	1f
.	2b	.
=14	=14	=14
2c	1cc	1g
2c	.	.
2.e	1b	2r
.	.	2g
4f	.	.
=15	=15	=15
2g	0r	2.b
2.G	.	.
.	.	4cc
.	.	2dd
4A	.	.
4B	.	4d
4c	.	4e
=16	=16	=16
4d	0r	4f
4e	.	4g
1f	.	4a
.	.	4b
.	.	4cc
.	.	4a
4e	.	[2dd
4d	.	.
=17	=17	=17
2e	2r	2dd]
2e	2g	2cc#
2d	2.b	2.dd
2G	.	.
.	4cc	4cc
=18	=18	=18
2.B	2.dd	4b
.	.	4a
.	.	1g
4c	8cc	.
.	8b	.
1d	1a	.
.	.	2f#
=19	=19	=19
2.e	2r	1g
.	2g	.
4f	.	.
[1g	2.b	2r
.	.	2g
.	4cc	.
=20	=20	=20
1g]	2dd	2.b
.	4g	.
.	4a	4cc
1r	4b	2dd
.	4cc	.
.	[2dd	4g
.	.	4a
=21	=21	=21
0r	4dd]	4b
.	4cc	4cc
.	4b	2.dd
.	4a	.
.	2.g	.
.	.	4cc
.	.	4b
.	4a	4a
=22	=22	=22
2r	2b	2g
2c	1cc	2a
2.e	.	1g
.	4b	.
4f	4a	.
=23	=23	=23
2g	2b	2.e
4c	2cc	.
4d	.	4f
4e	1b	4g
4f	.	4a
[2g	.	4b
.	.	4cc
=24	=24	=24
4g]	0r	2dd
4f	.	.
4e	.	2.cc
4d	.	.
2.c	.	.
.	.	4b
.	.	4a
8B	.	4g
8c	.	.
=25	=25	=25
2d	1r	2f#
2B	.	2g
2.c	2r	1e
.	2g	.
8B	.	.
8A	.	.
=26	=26	=26
[0G	2.b	2r
.	.	2g
.	4cc	.
.	2dd	2.b
.	4g	.
.	4a	4cc
=27	=27	=27
1G]	4b	2dd
.	4cc	.
.	2.dd	4g
.	.	4a
1r	.	4b
.	4cc	4cc
.	4b	[2dd
.	4a	.
=28	=28	=28
2r	2g	2dd]
2c	2a	2cc
2.e	2g	2b
.	2cc	2ee
4f	.	.
=29	=29	=29
2g	2b	2dd
4c	2a	2cc
4d	.	.
4e	2.g	2.b
4f	.	.
[2g	.	.
.	4a	4cc
=30	=30	=30
4g]	2b	2dd
4f	.	.
4e	2.cc	2.ee
4d	.	.
1c	.	.
.	4b	4dd
.	4a	4cc
.	4g	4b
=31	=31	=31
1.d	4f#	4a
.	4g	4g
.	1a	4f#
.	.	4e
.	.	2f#
2e	[2g	2g
=32	=32	=32
1c	2g]	1.a
.	4f	.
.	4e	.
1d	2f#	.
.	2f#	2a
=33	=33	=33
[0G	[0g	[0b
=34	=34	=34
0G]	0g]	0b]
*-	*-	*-
!!!CDT: 1525/^1526/-1594/2/2
!!!OCY: Italia
!!!AGN: Mass (Parody)
!!!AST: renaissance, vocal
!!!ASW: Motet 1563 (Palestrina)
!!!PWK: Masses, Book 4
!!!RNB: Cadence finals: D
!!!YOR: Le Opere Complete, v. 10, p. 1
!!!YOO: Rome, Italy: Fratelli Scalera
!!!END: 1992//
!!!EED: John Miller
!!!YEC: Copyright 2000, John Miller
!!!YEN: United States of America
!!!YEM: Rights to all derivative electronic formats reserved.
!!!YEM: Refer to licensing agreement for further details.
!!!YEM: This file must be accompanied by the licensing agreement.
!!!YEM: A copy of the licensing agreement may be found at http://www.music-cog.ohio-state.edu/HumdrumDatabases/Palestrina/license.txt
!!!EMD: converted to Humdrum by Bret Aarden
